assets/icons/interactiondesignfoundation.svg

<?xml version="1.0" encoding="UTF-8"?>
<svg width="26px" height="26px" viewBox="0 0 26 26" version="1.1" xmlns="http://www.w3.org/2000/svg" xmlns:xlink="http://www.w3.org/1999/xlink">
    <!-- Generator: Sketch 53.2 (72643) - https://sketchapp.com -->
    <title>interactiondesignfoundation</title>
    <desc>Created with Sketch.</desc>
    <g id="Page-1" stroke="none" stroke-width="1" fill="none" fill-rule="evenodd">
        <g id="Artboard" fill="#002FA1" fill-rule="nonzero">
            <g id="interactiondesignfoundation">
                <path d="M0.00018881916,12.9619535 C-0.038046475,5.81195351 5.73548292,0.0384241134 12.8854829,0.00018881916 C20.0354829,-0.038046475 25.8090123,5.73548292 25.8472476,12.8854829 C25.8854829,20.0354829 20.1119535,25.8090123 12.9619535,25.8472476 C12.9619535,25.8472476 12.9237182,25.8472476 12.9237182,25.8472476 C5.81195351,25.8472476 0.0384241134,20.0737182 0.00018881916,12.9619535 L0.00018881916,12.9619535 Z M1.83548294,12.9619535 C1.83548294,19.0807663 6.80490548,24.0501888 12.9237182,24.0501888 C19.042531,24.0501888 24.0119535,19.0807663 24.0119535,12.9619535 C24.0119535,6.84314077 19.0763366,1.90752383 12.9575238,1.87371823 L12.9237182,1.87371823 C6.80490548,1.87371823 1.83548294,6.84314077 1.83548294,12.9619535 Z" id="Shape"></path>
                <path d="M8.75804661,9.08490568 C9.19717222,8.89844618 9.63629782,8.61875694 9.98759834,8.24583797 C10.119336,8.89844618 10.3828114,9.50443952 10.7780244,10.063818 C10.4267239,10.2036626 10.0754235,10.3901221 9.8119481,10.6698113 C9.63629782,10.063818 9.2410848,9.50443952 8.75804661,9.08490568 L8.75804661,9.08490568 Z M13.4916806,6.80399749 C12.9967533,6.75802671 12.501826,6.84996823 12.0068988,7.03385129 C11.9244109,6.16040683 11.6357033,5.3329331 11.18202,4.64337166 C11.2232639,4.59740093 12.3780942,4.09172251 13.1204851,4.2296348 C13.862876,4.36754709 13.5329245,6.11443605 13.5329245,6.80399749 L13.5329245,6.80399749 L13.4916806,6.80399749 Z M15.0467728,21.5776915 L11.1177829,21.5776915 C11.5021406,21.3607954 11.8437919,21.1872785 11.8864983,21.0137617 C12.057324,20.276315 12.057324,19.4521098 11.8864983,18.7146632 C11.544847,18.0205957 10.9469573,17.5000451 10.2209483,17.2397698 C9.96470977,17.283149 9.7084713,17.4132866 9.45223283,17.5434243 L9.87929694,17.8470788 C9.49493924,18.1073541 9.15328796,18.4543879 8.9397559,18.88818 C8.72622384,18.6279047 8.46998538,18.4110086 8.21374687,18.1941125 C8.42727897,17.7603204 8.76893026,17.4132866 9.19599437,17.1530113 L9.40952642,17.3699074 C9.58035207,17.2397698 9.75117771,17.1096321 9.96470977,17.0662529 C9.23870078,16.8059776 8.46998538,16.5890815 7.70126994,16.5023231 L7.70126994,17.283149 C6.84714172,17.1963906 6.03571986,17.283149 5.22429805,17.5868035 C5.22429805,17.5000451 4.96805955,16.285427 5.26700446,15.5479803 C5.56594934,14.8105336 7.188793,15.5913595 7.87209558,15.7214972 C7.82938917,15.895014 7.78668276,16.1119101 7.74397635,16.285427 C8.29915969,16.1986686 8.81163667,16.1552894 9.36682001,16.1986686 C9.11058154,15.8082556 8.72622384,15.5046011 8.29915969,15.3310842 C7.82938917,15.1141881 7.44503147,14.8539128 7.06067377,14.5068791 L6.42007756,14.8539128 C6.29195833,14.0297077 5.86489422,13.2055026 5.30971088,12.5981936 C5.95030704,12.4680559 6.5481968,12.2077806 7.10338018,11.9041261 C7.188793,12.5114351 7.31691224,13.7694324 7.74397635,14.3333623 C7.48773788,14.3333623 7.27420583,14.4201207 7.06067377,14.5502583 C7.48773788,14.8539128 8.00021482,15.0708089 8.51269179,15.2009466 C8.46998538,14.9840505 8.46998538,14.7671544 8.51269179,14.5502583 L8.21374687,14.5502583 C8.17104046,14.1598454 8.17104046,13.8128116 8.25645328,13.4223987 C8.5553982,13.3790195 8.85434308,13.4223987 9.11058154,13.5091571 C8.9397559,13.8561909 8.85434308,14.2032246 8.85434308,14.5936375 L8.51269179,14.5936375 C8.51269179,14.8539128 8.5553982,15.0708089 8.68351743,15.287705 C9.23870078,15.4612219 9.75117771,15.8516348 10.0501226,16.3721854 L11.2031957,16.6758399 C11.2031957,16.4589439 11.1604893,16.2420478 11.0750765,16.0685309 L10.7761316,16.1552894 C10.6907188,15.7648764 10.5198932,15.4178427 10.2636547,15.1575674 C10.5198932,15.0274297 10.818838,14.8972921 11.1177829,14.8539128 C11.2886086,15.2009466 11.3740214,15.5479803 11.4167278,15.9383933 L11.0750765,15.9383933 C11.2031957,16.1552894 11.2886086,16.3721854 11.331315,16.6324608 L12.0146176,16.9361152 C12.1000304,15.895014 11.7583791,14.8972921 11.1177829,14.1164662 L10.4344803,14.680396 C10.2209483,13.7694324 8.89704949,12.5981936 8.89704949,12.5981936 C9.40952642,12.3379183 9.87929694,11.9908845 10.3063611,11.5570924 C11.1177829,11.9908845 11.7156727,13.2488818 11.8437919,13.5959155 L11.2031957,13.9429493 L11.9719112,14.5936375 L12.270856,15.0274297 C12.4416817,14.8972921 12.5698009,14.7237752 12.6979202,14.5068791 L12.270856,14.3767414 C12.5698009,13.9429493 12.7406266,13.4657779 12.8260394,12.9452273 C13.1249843,13.1621234 13.4666356,13.292261 13.8082869,13.3356402 C13.7655805,13.8561909 13.5947548,14.3767414 13.2958099,14.8105336 L12.8687458,14.5936375 C12.783333,14.8539128 12.6552137,15.1141881 12.4416817,15.3310842 C12.6979202,15.895014 12.8687458,16.5457023 13.1249843,17.1530113 C14.6624151,15.8516348 14.235351,13.3790195 13.9364061,12.2511598 L13.2103971,12.8150897 C12.6979202,11.9908845 12.0146176,11.3401963 11.2031957,10.8630249 C11.2459021,10.8196457 12.1427368,9.69178604 12.996865,9.47488995 C13.8509933,9.25799386 14.2780574,11.1666794 14.6624151,11.9041261 L14.1072318,12.2077806 C14.4915895,12.8150897 14.7905343,13.4657779 14.9186536,14.1598454 L15.6019562,13.5959155 L15.3030113,13.4657779 C15.5165434,13.0319857 15.8581947,12.684952 16.2852588,12.4246767 C16.4987908,12.684952 16.7550293,12.9018481 17.0112678,13.075365 C16.6269101,13.3356402 16.2852588,13.682674 16.0717267,14.1164662 L15.687369,13.7260532 C15.3884241,14.1164662 15.1321856,14.5936375 14.96136,15.0708089 C15.0040664,15.5913595 14.96136,16.1552894 14.8332408,16.6758399 C15.2603049,16.4155647 15.7300754,16.285427 16.2425524,16.2420478 C16.3706716,15.7214972 16.6696165,15.3310842 17.139387,15.0708089 L16.6696165,14.5068791 C17.1820934,13.9863285 18.1643409,13.0319857 18.7195243,12.9018481 C19.2320012,13.3790195 19.6163589,13.9429493 19.8725974,14.5936375 C19.0611756,14.7671544 18.2924601,15.1575674 17.651864,15.7214972 L17.2675063,15.1575674 C17.0112678,15.4612219 16.8404421,15.8082556 16.7977357,16.1986686 C17.4383319,16.1552894 18.1216345,16.1986686 18.7622307,16.285427 C18.8049371,16.0251517 18.8476435,15.8082556 18.8049371,15.5479803 C19.1465884,15.5046011 20.5131936,15.5479803 21.281909,16.1119101 C21.1110833,16.6758399 20.9829641,17.283149 20.9829641,17.890458 C20.9829641,17.890458 19.4028269,17.1963906 18.5059922,17.3699074 C18.591405,17.1096321 18.6768178,16.8059776 18.7195243,16.5457023 C17.8226896,16.4589439 16.9258549,16.5890815 16.0717267,16.9361152 L16.9258549,17.1096321 C16.9685613,17.0228737 17.0112678,16.892736 17.0112678,16.8059776 C17.4810383,16.892736 17.9081024,17.1530113 18.2497537,17.5000451 C17.9935153,17.7169411 17.8226896,18.0205957 17.7372768,18.3242502 C17.3956255,18.0205957 16.9685613,17.8036996 16.4987908,17.673562 L16.7977357,17.1963906 C16.413378,17.1530113 16.0290203,17.1096321 15.6446626,17.1530113 L14.96136,17.6301827 C14.7051215,17.890458 14.4915895,18.1941125 14.3634702,18.5411463 C14.4915895,18.7146632 14.5342959,18.9315592 14.5342959,19.1484553 C14.5770023,19.4954891 14.4061766,19.7991436 14.1072318,19.9726605 C14.1072318,20.4498318 14.2780574,20.9270032 14.5770023,21.2740369 L15.0467728,21.5776915 Z M14.0010441,18.7709855 C14.0361446,18.6008821 13.9659436,18.4307787 13.8255414,18.345727 C13.6851392,18.3882528 13.6149382,18.5583562 13.6149382,18.7284596 C13.5798376,18.898563 13.6500387,19.0686664 13.7904409,19.1537181 C13.930843,19.1111922 14.0361446,18.9410889 14.0010441,18.7709855 L14.0010441,18.7709855 Z M13.5646886,18.3824539 C13.2818917,18.4559076 13.160693,18.7497225 13.2414921,19.1537181 C13.2010926,18.89663 13.3222913,18.6395419 13.524289,18.4559076 C13.6454877,18.3824539 13.5646886,18.345727 13.5646886,18.345727 L13.5646886,18.345727 L13.5646886,18.3824539 L13.5646886,18.3824539 Z M11.1012209,9.09084054 C10.7376249,8.26512625 10.2124306,7.53115803 9.56603774,6.98068184 C9.60643729,6.93480883 10.4952275,6.01734853 11.2224195,5.83385645 C11.9496115,5.65036441 12.1920089,7.62290405 12.3940067,8.31099926 L11.7072142,8.63211037 C11.7880133,8.90734846 11.7880133,9.18258656 11.7072142,9.45782465 C11.6668147,9.22845957 11.6264151,8.95322147 11.545616,8.72385643 L11.1012209,9.09084054 Z M5.12208657,13.3823529 C4.94253301,13.5884731 4.89764457,14.495402 4.94253301,15.1137625 C4.08965345,14.8664183 3.19188556,14.7839702 2.29411765,14.8251942 C2.47367123,14.2480577 2.56344802,13.6709212 2.47367123,13.0937847 C2.87766679,13.3823529 4.49364901,13.423577 5.12208657,13.3823529 Z M9.16204218,11.3361417 C8.57112328,11.3781153 8.02241292,11.5879831 7.515911,11.881798 C7.47370251,11.0843003 6.71394967,9.95101403 6.33407325,9.36338415 C7.09382609,9.32141058 8.44449782,8.64983353 8.44449782,8.64983353 C8.27566384,9.40535771 8.69774878,10.5806175 9.11983369,11.3361417 L9.16204218,11.3361417 L9.16204218,11.3361417 Z M15.6464699,7.43784685 C15.2629731,7.34461712 14.8794763,7.34461712 14.4959795,7.43784685 C14.4192802,6.83185351 14.3425808,5.57325196 14.5343292,5.06048835 C15.032875,4.96725862 15.5314209,5.01387349 16.0299667,5.20033299 C15.761519,5.89955607 15.6081202,6.645394 15.6464699,7.43784685 L15.6464699,7.43784685 Z M8.39445061,8.24583797 C8.39445061,8.24583797 7.70765816,7.08046616 7.14206437,6.84739178 C7.46526082,6.56770255 7.74805771,6.19478358 7.95005549,5.82186461 C8.47524972,6.14816871 8.87924528,6.61431745 9.16204218,7.22031079 C8.83884573,7.50000003 8.59644839,7.872919 8.39445061,8.24583797 Z M16.8379578,11.0520867 C17.6166739,10.6176829 18.39539,9.05382909 18.39539,9.05382909 C18.7642555,9.5316733 19.1741061,9.92263674 19.6659267,10.2701598 C19.4200164,11.1824078 18.436375,12.0946559 18.1494796,12.2684174 C18.0265245,12.0946559 17.9035693,11.9208944 17.7396291,11.7905732 C17.4117486,12.1380963 17.1658383,12.6159405 17.0428831,13.0937847 C17.1248532,12.5725001 17.3297785,12.0946559 17.5756889,11.6602521 L16.8379578,11.0520867 Z M20.7516648,15.5177581 C20.8425638,15.2222986 20.4335183,14.2515033 20.0699223,13.5761675 C21.1152608,13.4917505 22.1151498,13.196291 23.0241398,12.6897891 C23.1150388,13.365125 23.3422863,14.0404609 23.7058824,14.6313797 C23.1604883,14.5469627 21.3879578,15.1800901 20.7516648,15.5177581 L20.7516648,15.5177581 Z M19.2619312,11.9030609 C19.9165063,11.4778025 20.816547,10.5847596 21.0211017,9.86182021 C21.4302112,10.4571821 21.9211425,10.9674923 22.4938957,11.3927508 C21.9211425,11.7329575 20.7756361,12.455897 20.4074376,13.0937847 C20.121061,12.5834745 19.7528625,12.2007419 19.2619312,11.9030609 L19.2619312,11.9030609 Z M16.0299667,8.55477576 C16.2807226,8.05572243 16.8240269,6.64173797 16.7822343,6.22586017 C17.283746,6.5169746 17.868843,6.68332571 18.4539401,6.76650129 C18.0778063,7.47349352 17.8270504,8.26366129 17.7434651,9.05382909 C17.2001607,8.76271466 16.3225152,8.43001244 16.0717594,8.51318797 L16.0717594,8.51318797 L16.0299667,8.55477576 Z M15.4095449,11.0289185 C15.2796892,11.6124676 15.0199778,12.1960168 14.6736959,12.6897891 C14.9334073,12.1511284 15.0632631,11.5675792 15.1065483,10.9391417 L14.4139845,10.7595881 C14.8468369,10.176039 14.9334073,8.87427553 14.9766925,8.24583797 C15.5826859,8.56005675 16.1886792,8.7844987 16.8379578,8.87427553 C16.318535,9.32315948 15.9722531,10.4902578 15.8856826,11.2982489 L15.4095449,11.0289185 Z M12.7980022,7.70132221 C13.2468862,7.70132221 13.6508817,7.61349709 14.0548773,7.43784685 C14.0548773,8.05262269 14.1895425,8.62348599 14.4139845,9.19434929 C13.9651005,9.19434929 13.5611049,9.28217441 13.1571094,9.45782465 C13.1571094,8.84304881 13.0224442,8.27218551 12.7980022,7.70132221 L12.7980022,7.70132221 Z M20.8779134,8.14044781 C20.4387878,8.49174833 20.0435748,8.93087393 19.8240119,9.45782465 C19.516624,9.23826183 19.2092361,9.10652417 18.8579356,9.01869905 C19.0335859,8.57957345 19.3409738,7.70132221 19.6483617,7.43784685 C20.0874873,7.56958455 20.5266129,7.78914733 20.8779134,8.09653527 L20.8779134,8.14044781 L20.8779134,8.14044781 Z M5.2519423,11.4778025 C4.99223084,10.7726466 3.91009989,9.93527396 3.91009989,9.93527396 C4.29966703,9.67084048 4.64594896,9.40640705 4.94894563,9.05382909 C5.55493897,9.40640705 6.03107658,9.89120172 6.33407325,10.5082131 C5.94450611,10.7726466 5.55493897,11.0811523 5.2519423,11.4778025 Z" id="Shape"></path>
            </g>
        </g>
    </g>
</svg>

<svg width="26" height="26" fill="none" xmlns="http://www.w3.org/2000/svg"><path d="M0 12.962C-.038 5.812 5.735.038 12.886 0c7.15-.038 12.923 5.735 12.961 12.886.038 7.15-5.735 12.923-12.885 12.961h-.038C5.812 25.847.038 20.074 0 12.962zm1.835 0c0 6.119 4.97 11.088 11.089 11.088 6.119 0 11.088-4.97 11.088-11.088 0-6.119-4.936-11.054-11.055-11.088h-.033c-6.12 0-11.089 4.97-11.089 11.088z" fill="#fff"/><path d="M8.758 9.085c.439-.186.878-.466 1.23-.839a4.75 4.75 0 00.79 1.818c-.351.14-.703.326-.966.606-.176-.606-.571-1.165-1.054-1.585zm4.734-2.28c-.495-.047-.99.045-1.485.229a5.264 5.264 0 00-.825-2.39c.041-.046 1.196-.552 1.938-.414.743.138.413 1.885.413 2.574h-.041zm1.555 14.773h-3.93c.385-.217.727-.39.77-.564.17-.738.17-1.562 0-2.3a2.955 2.955 0 00-1.666-1.474c-.256.043-.513.174-.769.304l.427.303c-.384.26-.726.608-.94 1.041-.213-.26-.47-.477-.725-.694a2.54 2.54 0 01.982-1.04l.213.216c.171-.13.342-.26.556-.304-.726-.26-1.495-.477-2.264-.563v.78a5.36 5.36 0 00-2.477.304c0-.087-.256-1.301.043-2.039.299-.737 1.922.043 2.605.174-.043.173-.085.39-.128.564.555-.087 1.067-.13 1.623-.087a2.337 2.337 0 00-1.068-.868 4.77 4.77 0 01-1.238-.824l-.641.347c-.128-.824-.555-1.648-1.11-2.256.64-.13 1.238-.39 1.793-.694.086.608.214 1.866.64 2.43-.255 0-.469.086-.683.216.428.304.94.521 1.453.651a1.668 1.668 0 010-.65h-.3a3.34 3.34 0 01.043-1.128c.3-.044.598 0 .854.086-.17.347-.256.694-.256 1.085h-.341c0 .26.042.477.17.694a2.434 2.434 0 011.367 1.084l1.153.304c0-.217-.043-.434-.128-.607l-.299.087a2.023 2.023 0 00-.512-.998c.256-.13.555-.26.854-.304.17.347.256.694.299 1.085h-.342c.128.216.213.433.256.694l.683.303a3.93 3.93 0 00-.896-2.82l-.684.565c-.213-.911-1.537-2.083-1.537-2.083.512-.26.982-.607 1.41-1.04.81.433 1.409 1.691 1.537 2.038l-.641.347.769.65.299.435c.17-.13.299-.304.427-.52l-.427-.131c.299-.434.47-.911.555-1.432.299.217.64.347.982.39a3.054 3.054 0 01-.512 1.476l-.427-.217a1.85 1.85 0 01-.428.737c.257.564.428 1.215.684 1.822 1.537-1.301 1.11-3.774.811-4.902l-.726.564a5.802 5.802 0 00-2.007-1.952c.043-.043.94-1.171 1.794-1.388.854-.217 1.28 1.692 1.665 2.43l-.555.303c.384.607.683 1.258.812 1.952l.683-.564-.3-.13a2.54 2.54 0 01.983-1.041c.214.26.47.477.726.65-.384.26-.726.608-.94 1.042l-.384-.39c-.299.39-.555.867-.726 1.344.043.52 0 1.085-.128 1.605.427-.26.897-.39 1.41-.434.128-.52.426-.91.896-1.171l-.47-.564c.513-.52 1.495-1.475 2.05-1.605a4.574 4.574 0 011.153 1.692 4.94 4.94 0 00-2.22 1.128l-.385-.564c-.256.303-.427.65-.47 1.04.641-.043 1.325 0 1.965.088.043-.26.085-.478.043-.738.341-.043 1.708 0 2.477.564-.171.564-.3 1.171-.3 1.779 0 0-1.58-.694-2.476-.52.085-.261.17-.565.213-.825a5.565 5.565 0 00-2.647.39l.854.174a.814.814 0 00.085-.304c.47.087.897.347 1.239.694a1.68 1.68 0 00-.513.824 3.1 3.1 0 00-1.238-.65l.299-.477c-.385-.044-.77-.087-1.153-.044l-.684.477c-.256.26-.47.564-.598.911.128.174.171.39.171.608.043.347-.128.65-.427.824 0 .477.17.954.47 1.301l.47.304zM14 18.77a.399.399 0 00-.176-.425c-.14.042-.21.212-.21.383-.035.17.035.34.175.425.14-.043.246-.213.21-.383zm-.436-.388c-.283.073-.404.367-.324.77-.04-.256.081-.513.283-.697.121-.073.04-.11.04-.11v.037zM11.1 9.09c-.364-.826-.889-1.56-1.535-2.11.04-.046.93-.963 1.656-1.147.727-.183.97 1.79 1.172 2.477l-.687.321c.08.276.08.55 0 .826-.04-.23-.08-.505-.162-.734l-.444.367zm-5.98 4.292c-.179.206-.224 1.113-.179 1.73a8.163 8.163 0 00-2.648-.288c.18-.577.27-1.154.18-1.731.403.289 2.02.33 2.648.289zm4.04-2.047c-.59.042-1.139.252-1.645.546-.042-.797-.802-1.93-1.182-2.518.76-.042 2.11-.714 2.11-.714-.169.756.254 1.93.676 2.686h.042zm6.485-3.898a2.401 2.401 0 00-1.15 0c-.077-.606-.154-1.865.038-2.377a2.753 2.753 0 011.496.14c-.269.699-.422 1.445-.384 2.237zm-7.252.808s-.687-1.165-1.252-1.398c.323-.28.606-.653.808-1.026.525.326.93.792 1.212 1.398-.323.28-.566.653-.768 1.026zm8.444 2.806c.778-.434 1.557-1.998 1.557-1.998.37.478.779.869 1.27 1.216-.245.913-1.229 1.825-1.516 1.999-.123-.174-.246-.348-.41-.478a3.052 3.052 0 00-.696 1.303c.082-.521.287-1 .533-1.434l-.738-.608zm3.913 4.466c.091-.296-.318-1.266-.681-1.942a7.233 7.233 0 002.954-.886c.09.675.318 1.35.682 1.942-.546-.085-2.318.548-2.954.886zm-1.49-3.615c.655-.425 1.555-1.318 1.76-2.041.409.595.9 1.106 1.473 1.53-.573.341-1.718 1.064-2.087 1.702a3.142 3.142 0 00-1.145-1.19zM16.03 8.555c.25-.5.794-1.913.752-2.329.502.291 1.087.458 1.672.54a6.345 6.345 0 00-.71 2.288c-.544-.291-1.422-.624-1.672-.54l-.042.041zm-.62 2.474a4.741 4.741 0 01-.736 1.661c.26-.539.39-1.122.432-1.75l-.692-.18c.433-.584.52-1.886.563-2.514.605.314 1.212.539 1.86.628-.519.45-.865 1.616-.951 2.424l-.477-.269zm-2.612-3.328c.449 0 .853-.087 1.257-.263 0 .615.134 1.186.359 1.757-.45 0-.853.087-1.257.263 0-.615-.135-1.186-.36-1.757zm8.08.44c-.44.35-.835.79-1.054 1.317a2.743 2.743 0 00-.966-.44c.175-.438.483-1.317.79-1.58.44.132.878.351 1.23.659v.044zM5.252 11.478c-.26-.705-1.342-1.543-1.342-1.543.39-.264.736-.528 1.039-.881.606.353 1.082.837 1.385 1.454-.39.265-.78.573-1.082.97z" fill="#fff"/></svg>
